Assets/svg/AdobeIllustrator-icon.svg

<?xml version="1.0" encoding="UTF-8"?><svg xmlns="http://www.w3.org/2000/svg" xmlns:xlink="http://www.w3.org/1999/xlink" viewBox="0 0 15.03 15.03"><defs><style>.f{fill:url(#d);}.g{fill:url(#e);}</style><linearGradient id="d" x1="5.5" y1="6.67" x2="7.14" y2="6.67" gradientTransform="matrix(1, 0, 0, 1, 0, 0)" gradientUnits="userSpaceOnUse"><stop offset="0" stop-color="#2f1cef"/><stop offset="1" stop-color="#4933fd"/></linearGradient><linearGradient id="e" x1="0" y1="7.52" x2="15.03" y2="7.52" xlink:href="#d"/></defs><g id="a"/><g id="b"><g id="c"><g><path class="f" d="M6.33,5.56c.23,.66,.42,1.21,.59,1.66l.21,.56h-1.63l.22-.56c.17-.45,.37-1,.59-1.66h.02Z"/><path class="g" d="M10.74,0H4.3C1.92,0,0,1.93,0,4.3v6.44c0,2.37,1.92,4.3,4.3,4.3h6.44c2.37,0,4.3-1.92,4.3-4.3V4.3c0-2.37-1.92-4.3-4.3-4.3Zm-2.61,10.35l-.62-1.61h-2.38l-.62,1.61h-1.23l2.51-6.31h1.06l2.51,6.31h-1.22Zm3.12,0h-1.12V5.78h1.12v4.57Zm.03-5.62h-1.18v-1.21h1.18v1.21Z"/></g></g></g></svg>

<?xml version="1.0" encoding="utf-8"?>
<!-- Generator: Adobe Illustrator 27.3.1, SVG Export Plug-In . SVG Version: 6.00 Build 0)  -->
<svg version="1.1" id="Layer_1" xmlns="http://www.w3.org/2000/svg" xmlns:xlink="http://www.w3.org/1999/xlink" x="0px" y="0px"
	 viewBox="0 0 15 15" style="enable-background:new 0 0 15 15;" xml:space="preserve">
<style type="text/css">
	.st0{fill:#3498DB;}
</style>
<g id="a">
</g>
<g id="b">
	<g id="c">
		<g>
			<path class="st0" d="M6.3,5.6c0.2,0.7,0.4,1.2,0.6,1.7l0.2,0.6H5.5l0.2-0.6C5.9,6.8,6.1,6.2,6.3,5.6L6.3,5.6z"/>
			<path class="st0" d="M10.7,0H4.3C1.9,0,0,1.9,0,4.3v6.4C0,13.1,1.9,15,4.3,15h6.4c2.4,0,4.3-1.9,4.3-4.3V4.3
				C15,1.9,13.1,0,10.7,0z M8.1,10.4L7.5,8.7H5.1l-0.6,1.6H3.3L5.8,4h1.1l2.5,6.3H8.1L8.1,10.4z M11.2,10.4h-1.1V5.8h1.1V10.4z
				 M11.3,4.7h-1.2V3.5h1.2V4.7z"/>
		</g>
	</g>
</g>
</svg>
